X:1
T:Credo
T:Credo
T:Giovanni Battista Casali
C:Giovanni Battista Casali
%%score [ 1 2 3 4 ]
L:1/8
Q:1/4=120
M:4/4
K:G
V:1 treble nm="S."
V:2 treble nm="A."
V:3 treble-8 nm="T."
V:4 bass nm="B."
V:1
 B4 B2 B2 | c2 d2 c4 | B2 B2 c2 A2 | B2 B d c4 | B2 d3 c B2- | B2 c c d3 c | B2 B4 ^G2 | %7
w: Pa- trem om-|ni- po- ten-|tem, fac- to- rem|coe- li et ter-|rae, vi- si- bi-|* li- um om- ni-|um et in-|
 A2 A2 A3 A | A4 z4 | z2 d4 d2 | c4 B2 B2- | B2 B B B2 B2 | c2 A2 B3 B | B2 B3 B e d | c2 c2 d3 c | %15
w: vi- si- bi- li-|um.|Je- sum|Chri- stum, Fi-|* li- um De- i|u- ni- ge- ni-|tum. et ex Pa- tre|na- tum an- te|
 B2 B B c4- | c2 B2 A3 A | G2 z4 d2- | d2 c2 B2 A2 | B2 A2 B2 B B | c2 c2 (B2 A2) | B2 G3 A B c | %22
w: om- ni- a sae-|* * * cu-|la. De-|* um ve- rum,|De- um ver- rum de|De- o ve- *|ro. Ge- ni- tum non|
 d4 B4 | A2 z2 B c d c | B2 d2 c4 | B2 B4 B2 | c2 c c c2 B2 | c2 z3 G G G | c4 A B c2- | c2 B2 c4 | %30
w: fact- *|tum, con- sub- stan- ti-|a- lem Pa-|tri, per quem|om- ni- a fac- ta|sunt. Et prop- ter|no- stram sa- lu-|* * tem|
 z6 c2 | A2 c c B2 c2- | c2 BA B4 | c8 || c2 c c A2 d2 | c2 c2 c2 c c | A4 G2 c2- | c2 c2 c2 B2 | %38
w: de|scen- dit de coe- *||lis.|Et in- car- na- tus|est de Spi- ri- tu|Sanc- to ex|_ Ma- ri- a|
 A3 A B2 G2 | c6 c2 | B2 c4 B2 | c8 || B3 B c2 A2 | B3 A G2 A2 | B4 A4 | z2 d2 B2 F2 | G2 A2 B4 | %47
w: vir- gi- ne, et|ho- mo|fac- * tus|est.|Cru- ci- fi- xus|e- ti- am pro|no- bis|sub Pon- ti-|o Pi- la-|
 A4 z2 d2- | d2 ^c2 d A d2- | d2 ^c2 d A A A | d6 ^c2 | B2 e e e2 ^d d | e2 B2 c2 B2 | B2 A2 B4 | %54
w: to pas-|* sus et se- pul-|* tus est. Et re- sur-|re- xit|ter- ti- a di- e se-|cun- dum scrip- tu-|* * ras.|
 z8 | A2 A2 d2 d c | B2 B2 c2 c c | c2 B B A4 | G2 G4 F F | G2 B2 c2 A2 | B ^c d4 c2 | d2 d4 ^c2 | %62
w: |Et a- scen- dit in|coe- lum se- det ad|dex- te- ram Pa-|tris. Et i- te-|rum ven- tu- rus|est cum glo- ri-|a ju- di-|
 d2 A2 B4 | A2 A2 B4 | c3 c B2 B2- | B2 B2 ^c4 | d2 A2 B2 A2 | A4 A2 d2- | d c B2 c3 B | %69
w: ca- re vi-|vos et mor-|* tu- os, cu-|* jus re-|gni non e- rit|fi- nis. Et|_ in Spi- ri- tum|
 A2 c2 B2 c2- | c2 BA B2 B2- | B2 B2 c2 d2 | c4 B2 B2- | B2 B2 c2 c2 | c2 c2 B2 c2- | c c B2 c4 | %76
w: Sanc- tum Do- mi-|* * * num et|_ vi- vi- fi-|can- tem, qui|_ ex Pa- tre|Fi- li- o- que|_ pro- ce- dit,|
 z8 | z2 B2 c3 c | B4 B4 | B4 c4 | e6 d2 | e2 B4 e2- | e2 d2 d2 c2 | B4 A2 c2- | c2 c2 d2 B2 | %85
w: |et Fi- li-|o si-|mul a-|do- ra-|tur et con-|* glo- ri- fi-|ca- tur, qui|_ lo- cu- tus|
 c2 c4 G2 | A4 G2 c2 | c2 B2 c2 G G | c3 c B2 B2 | c2 d2 G2 c2 | A2 c4 B B | c4 z2 G2 | G2 G2 c4 | %93
w: est per pro-|phe- tas. Et|u- nam sanc- tam ca-|tho- li- cam et|a- po- sto- li-|cam ec- cle- si-|am. U-|nam bap- tis-|
 c4 B2 B2 | d2 d2 c2 G2 | c2 c2 A2 B2 | c2 c2 c2 B2 | A4 G4 | A2 A2 B2 A2 | B c d c B2 B2 | %100
w: ma in re-|mis- si- o- nem,|in re- mis- si-|o- nem pec- ca-|to- rum.|Et ex- pec- to|re- sur- rec- ti- o- nem|
 z2 d4 d2- | d2 d4 ^c2 | d2 d2 B2 G2 | z2 d2 B2 G2 | A3 A B4 | ABcA B2 B2 | z2 c4 B2 | A4 B4 | %108
w: mor- tu-|* o- *|rum, et vi- tam|ven- tu- ri|sae- cu- li.|A- * * * * men,|a- men,|a- men,|
 c2 d2 c4- | c4 !fermata!B4 |] %110
w: a- men, a-|* men.|
V:2
 G4 G2 G2 | G2 G2 G4 | G2 G2 G2 F2 | G2 G G (G2 F2) | G2 B3 A G2- | G2 A A A3 A | G2 G4 D2 | %7
w: Pa- trem om-|ni- po- ten-|tem, fac- to- rem|coe- li et ter- *|rae, vi- si- bi-|* li- um om- ni-|um et in-|
 E2 F2 E3 E | F2 F G A2 G2 | F2 F A G2 G2- | G2 F2 G4 | G2 G G F2 G2 | E2 E2 F3 F | E4 z2 E2- | %14
w: vi- si- bi- li-|um. Et in u- num|Do- mi- nu Je- sum|_ Chri- stum,|Fi- li- um De- i|u- ni- ge- ni-|tum. Et|
 E E A G F2 F2 | G3 F E2 A G | F2 G4 F2 | G2 z4 F2- | F2 A2 G2 D2 | G2 F2 G2 G G | G2 G4 F2 | %21
w: _ ex Pa- tre na- tum|an- te om- ni- a|sae- cu- cu-|la. De-|* um ve- rum,|De- um ve- rum de|De- o ve-|
 G4 z2 D2 | D E F D G4 | F2 z2 G A B A | G2 G4 F2 | G2 G4 G2 | G2 E E =F3 F | E2 E2 D2 D D | %28
w: ro. Ge-|* ni- tum non fac-|tum, con- sub- stan- ti-|a- lem Pa-|tri, per quem|om- ni- a fac- ta|sunt. Qui prop- ter nos|
 E3 E =F2 z2 | z6 G2 | G8 | =F2 A2 G2 G G | G8 | G8 || G2 G G F2 G2 | G2 G2 A2 G G | =F4 E2 G2- | %37
w: ho- mi- nes|de-|scen-|dit de- scen- dit de|coe-|lis.|Et in- car- na- tus|est de Spi- ri- tu|Sanc- to ex|
 G2 A2 A2 G2- | G2 F F G4 | z2 G2 A2 =F2 | G6 G2 | G8 || G3 G E2 F2 | G3 F G2 D2 | G4 F2 F2 | %45
w: _ Ma- ri- a|_ vir- gi- ne,|et ho- mo|fac- tus|est.|Cru- ci- fi- xus|e- ti- am pro-|no- bis sub|
 G2 A2 B2 A2 | G2 D2 G4 | E2 A4 ^G2 | A8- | A2 A2 A4 | z A A A A2 A2 | G2 G G F4 | G2 G2 F2 F F | %53
w: Pon- ti- o Pi-|la- to, pas-|sus et se-|pul-|* tus est.|Et re- sur- re- xit|ter- ti- a di-|e se- cun- dum scrip-|
 E4 F4 | F2 F2 G4 | E2 E2 A4 | G2 G4 G G | F2 G G G2 F2 | G4 z4 | z2 G2 E2 F2 | G3 D G3 G | %61
w: tu- ras.|Et a- scen-|dit in coe-|lum, se- det ad|dex- te- ram Pa- *|tris.|ven- tu- rus|est cum glo- ri-|
 F4 E3 E | A2 F2 G4 | F4 G4- | G2 F F G2 G2- | G2 G2 E4 | A2 F2 G2 F2 | E4 F4 | z2 G4 G2 | %69
w: a ju- di-|ca- re vi-|vos et|_ mor- tu- os, cu-|* jus re-|gni non e- rit|fi- nis.|Et in|
 =F2 A G F2 EF | G3 G G2 G2- | G2 G2 G2 G2 | G4 G4 | z6 G2- | G2 =F2 F2 E F | G4 G4 | z8 | %77
w: Spi- ri- tum sanc- tum _|Do- mi- mun et|_ vi- vi- fi-|can- tem,|Fi-|* li- o- que pro-|ce- dit,||
 z2 G2 G3 G | G4 E4 | E4 A4 | ^G4 A4 | ^G4 G4 | A2 A2 ^G2 A2- | A2 ^G2 A4 | A3 A G2 G2 | G4 A2 G2 | %86
w: et Fi- li-|o si-|mul a-|do- ra-|tur et|con- glo- ri- fi-|* ca- tur,|qui lo- cu- tus|est per pro-|
 =F4 E2 E2 | =F2 F2 E2 D D | E3 E D2 G2- | G2 =F F E2 E2 | A2 =F2 G3 G | G2 E2 D3 D | D4 E2 G2- | %93
w: phe- tas. Et|u- nam sanc- tam ca-|tho- li- cam et|_ a- po- sto- li-|cam ec- cle- si-|am. Con- fi- te-|or u- num|
 G2 G2 G4 | G4 G2 G2 | F2 G2 D2 G2 | G2 G2 F2 G2- | G2 F2 G4 | E2 A2 G2 F2 | G A B A G2 G2 | %100
w: _ bap- tis-|ma in re-|mis- si- o- nem|pec- ca- to- *|* * rum.|Et ex- pec- to|re- sur- rec- ti- o- nem|
 z4 G4 | A4 G4 | F2 F2 G2 D2 | z2 F2 G2 D2 | D2 F2 G4 | FGAF G2 G2 | z2 A4 G2- | G2 F2 G2 G2- | %108
w: mor-|tu- o-|rum, et vi- tam|ven- tu- ri|sae- cu- li.|A- * * * * men,|a- men,|_ a,- men, a-|
 G2 G2 G4- | G4 !fermata!G4 |] %110
w: * men, a-|* men.|
V:3
 d4 d2 d2 | e2 d2 e4 | d2 d2 c2 d2 | d2 d B c4 | d4 d3 d | e2 e e d3 d | d4 d2 d2 | ^c2 d4 c c | %8
w: Pa- trem om-|ni- po- ten-|tem, fac- to- rem|coe- li et ter-|rae, vi- si-|bi- li- um om- ni-|um et in-|vi- si- bi- li-|
 d2 d e f2 e2 | d2 d c B2 B2 | e2 c2 d4 | d2 d d B2 B2 | A2 e2 e2 ^d2 | e4 z4 | z8 | z8 | %16
w: um. Et in u- num|Do- mi- num Je- sum|Chri- * stum,|Fi- li- um De- i|u- ni- ge- ni-|tum.|||
 z4 d2 d d | B2 B2 A2 A A | d3 d d4 | d2 d2 d2 d d | c2 e2 d4 | d4 z4 | z4 G A B c | d8- | %24
w: De- um de|De- o, lu- men de|lu- mi- ne|De- um ve- rum de|De- o ve-|ro.|Con- sub- stan- ti-|a-|
 d2 B2 (e2 c2) | d2 d4 d2 | c2 c c d3 d | G2 c2 c2 B B | c3 c c2 c2 | =f3 f e2 e e | d4 c4 | %31
w: * lem Pa- *|tri, per quem|om- ni- a fac- ta|sunt. Qui prop- ter nos|ho- mi- nes et|prop- ter nos- tram sa-|lu- tem|
 z6 e2 | d2 d d d4 | c8 || e2 e e d2 d2 | e2 e2 e2 e e | c4 c2 e2- | e2 e2 d2 d2 | c3 c d2 B2 | %39
w: de-|scen- dit de coe-|lis.|Et in- car- na- tus|est de Spi- ri- tu|Sanc- to ex|_ Ma- ri- a|vir- gi- ne, et|
 e4 c4 | d2 e2 d3 d | c8 || d3 d c2 d2 | d3 c d2 d2 | d4 d2 d2 | B2 F2 G2 A2 | B2 F2 G2 d2 | %47
w: ho- mo|fac- * * tus|est.|Cru- ci- fi- xus|e- ti- am pro|no- bis sub|Pon- ti- o Pi-|la- to, pas- sus|
 ^c2 d2 d2 d2 | e4 f4 | e2 e2 d4 | z f f f e2 e2 | e2 B B B2 B2 | z2 e2 e2 ^d d | e4 ^d4 | %54
w: et se- pul- tus|est, se-|pul- tus est.|Et re- sur- re- xit|ter- ti- a di- e|se- cun- dum scrip-|tu- ras.|
 ^d2 d2 e4 | ^c2 c2 d4 | d4 e2 e e | A2 B c d4 | B2 B2 A3 A | B2 d2 c2 d2 | d3 d e3 e | A4 z4 | %62
w: Et a- scen-|dit in coe-|lum, se- det ad|dex- te- ram Pa-|tris. Et i- te-|rum ven- tu- rus|est cum glo- ri-|a|
 z2 d4 d2 | d2 d2 G2 d d | c3 c d2 d2- | d2 e2 e4 | d2 d2 d2 d2- | d2 ^c2 d4 | B2 d2 c4 | %69
w: ju- di-|ca- re vi- vos et|mor- tu- os, cu-|* jus re-|gni non e- rit|_ fi- nis.|Et in Spi-|
 c3 c d2 e2 | d3 d d2 d2- | d2 d2 e2 d2 | e4 d2 d2- | d2 d2 e2 e2 | e2 c2 d2 e e | d4 e2 c2- | %76
w: ri- tum Sanc- tum|Do- mi- num et|_ vi- vi- fi-|can- tem, qui|_ ex Pa- tre|Fi- li- o- que pro-|ce- dit, qui|
 c2 B2 e4 | d2 d2 e3 e | d4 B4 | e4 e4 | e4 c2 A2 | B4 B4 | c2 A2 B2 cd | e4 e4 | e3 e d2 d2 | %85
w: _ cum Pa-|tre et Fi- li-|o si-|mul a-|do- ra- *|tur et|con- glo- ri- fi- *|ca- tur,|qui- lo- cu- tus|
 e4 e2 c2 | c4 c2 c2 | d2 G2 c2 B B | c3 c G2 e2 | e2 d2 e2 c2 | c2 c2 d3 d | c2 c2 B3 B | %92
w: est per pro-|phe- tas. Et|u- nam sanc- tam ca-|tho- li- cam et|a- po- sto- li-|cam ec- cle- si-|am. Con- fi- te-|
 B4 z2 e2 | e2 e2 d4 | B4 e2 d2 | c2 d2 d2 d2 | e2 e2 A2 Bc | d4 d4 | c2 d2 d2 d2 | z4 B c d c | %100
w: or u-|nam bap- tis-|ma in re-|mis- si- o- men|pec- ca- to- * *|* rum.|Et ex- pec- to|re- sur- rec- ti-|
 B2 B2 B4 | d4 B2 G2 | A4 z2 B2 | A2 A2 z2 B2 | A2 d2 d3 d | d4 d4 | e4 d4- | d4 d4 | e2 d2 e4- | %109
w: o- nem mor-|tu- o- *|rum, et|vi- tam ven-|tu- ri sae- cu-|li. A-||* men,|a- men, a-|
 e4 !fermata!d4 |] %110
w: * men.|
V:4
 G,4 G,2 G,2 | C2 B,2 C4 | G,2 G,2 A,2 D,2 | G,2 G, B, A,4 | G,4 G,3 F, | E,2 A, G, F,3 F, | %6
w: Pa- trem om-|ni- po- ten-|tem, fac- to- rem|coe- li et ter-|rae, vi- si-|bi- li- um om- ni-|
 G,4 G,2 B,2 | A,2 D,2 A,,3 A,, | D,4 z4 | z4 G,2 B,2 | A,4 G,4 | G,2 G, G, ^D,2 E,2 | %12
w: um et in-|vi- si- bi- li-|um.|Je- sum|Chri- stum,|Fi- li- um De- i|
 A,2 C2 B,3 B, | E,4 z4 | z8 | z8 | z8 | G,2 G, G, D,3 D, | D,4 G,2 F,2 | G,2 D,2 G,4 | %20
w: u- ni- ge- ni-|tum.||||Lu- men de lu- mi-|ne, De- um|ve- rum de|
 E,2 C,2 D,4 | G,4 z4 | z8 | D, E, F, D, G,4 | G,4 A,4 | G,2 G,4 =F,2 | E,2 A, A, D,3 D, | C,2 z6 | %28
w: De- o ve-|ro.||Con- sub- stan- ti- a-|lem Pa-|tri, per quem|om- ni- a fac- ta|sunt.|
 z C, C, C, =F,2 E, E, | D,4 C,2 C2 | B,A,G,=F, E,2 C,2 | z2 =F,2 G,2 C C | G,8 | C,8 || %34
w: Et prop- ter no- stram sa-|lu- tem de-|scen- * * * * dit,|de- scen- dit de|coe-|lis.|
 C2 C C C2 B,2 | C2 C2 A,2 E, E, | =F,4 C,4 | C2 A,2 F,2 G,2 | A,3 A, G,4 | z2 C,2 =F,2 A,2 | %40
w: Et in- car- na- tus|est de Spi- ri- tu|Sanc- to|ex Ma- ri- a|vir- gi- ne,|et ho- mo|
 G,6 G,2 | C,8 || G,3 G, A,2 D,2 | G,3 A, B,2 F,2 | G,4 D,4 | z8 | z6 G,2- | G,2 F,2 E,2 B,2 | %48
w: fac- tus|est.|Cru- ci- fi- xus|e- ti- am pro-|no- bis,||pas-|* sus et se-|
 A,4 D,2 D,2 | A,,2 A,,2 D,4 | z D, D, D, A,2 A,2 | E,2 E, E, B,2 B,2 | z2 G,2 A,2 B, B, | C4 B,4 | %54
w: pul- tus, se-|pul- tus est.|Et re- su- re- xit|ter- ti- a di- e|se- cun- dum scrip-|tu- ras.|
 z4 E,2 E,2 | A,2 A, G, F,4 | G,4 C,2 C, C, | D,2 G, G, D,4 | G,4 z4 | z2 G,2 A,2 D,2 | %60
w: Et a-|scen- dit in coe-|lum, se- det ad|dex- te- ram Pa-|tris.|ven- tu- rus|
 G,3 F, E,3 E, | D,4 A,3 G, | F,2 D,2 G,4 | D,4 z2 G,2 | A,3 A, G,2 G,2- | G,2 E,2 A,3 G, | %66
w: est cum glo- ri-|a ju- di-|ca- re vi-|vos et|mor- tu- os, cu-|* jus re- *|
 F,2 D,2 G,2 D,2 | A,,4 D,4 | G,3 =F, E,4 | =F,3 E, D,2 C,2 | G,3 G, G,2 G,2- | G,2 G,2 C2 B,2 | %72
w: gni non e- rit|fi- nis.|Et in Spi-|ri- tum Sanc- tum|Do- mi- num et|_ vi- vi- fi-|
 C4 G,4 | z6 C2- | C2 A,2 G,2 C C | G,4 C,4 | G,3 G, C4 | B,2 G,2 C3 C | G,4 ^G,4 | ^G,4 A,4 | %80
w: can- tem,|Fi-|* li- o- que pro-|ce- dit,|qui cum Pa-|tre et Fi- li-|o si-|mul a-|
 E,4 =F,4 | E,4 E,4 | A,2 =F,2 E,2 A,2 | E,4 A,,4 | A,3 A, B,2 G,2 | C4 A,2 E,2 | =F,4 C,4 | z8 | %88
w: do- ra-|tur et|con- glo- ri- fi-|ca- tur,|qui lo- cu- tus|est per pro-|phe- tas.||
 z6 G,2 | A,2 B,2 C2 A,2 | =F,2 A,2 G,3 G, | C,2 C2 G,3 G, | G,4 z2 C,2 | C,2 C,2 G,4 | %94
w: Et|a- po- sto- li-|cam ec- cle- si-|am. Con- fi- te-|or u-|num bap- tis-|
 G,4 C2 B,2 | A,2 G,2 F,2 G,2 | C,2 E,2 D,4- | D,4 G,,2 G,2- | G,2 F,2 G,2 D,2 | z4 G, A, B, A, | %100
w: ma in re-|mis- si- o- nem|pec- ca- to-|* rum. Et|_ ex- pec- to|re- sur- rec- ti-|
 G,2 G,2 G,4 | F,4 E,4 | D,4 z2 G,2 | F,2 D,2 z2 G,2 | F,2 D,2 G,3 G, | D,4 G,A,B,G, | %106
w: o- nem mor-|tu- o-|rum, et|vi- tam ven-|tu- ri sae- cu-|li. A- * * *|
 C2 A,2 F,2 G,2 | D,4 G,4 | C2 B,2 C4- | C4 !fermata!G,4 |] %110
w: * men, a- men,|a- men,|a- men, a-|* men.|

